Origami/32x32/apps/popcorn-time.svg

<svg width="32" height="32" version="1.1" viewBox="0 0 32 32" xmlns="http://www.w3.org/2000/svg">
 <path d="m8 19c-1.108 0-2 0.944011-2 2.117188v8.382812c0 0.831 0.5575 1.5 1.25 1.5h2.75 4 4 4 2.75c0.6925 0 1.25-0.669 1.25-1.5v-8.382812c0-1.173176-0.892-2.117188-2-2.117188s-2 0.944012-2 2.117188v1.482421c0-1.1634-0.892-2.099609-2-2.099609s-2 0.936209-2 2.099609v0.542969c0-1.187143-0.892-2.142578-2-2.142578s-2 0.955435-2 2.142578v-0.542969c0-1.1634-0.892-2.099609-2-2.099609s-2 0.936209-2 2.099609v-1.482421c0-1.173176-0.892-2.117188-2-2.117188z" style="opacity:.2"/>
 <path d="M 19,3 A 8,8 0 0 0 11.601562,7.9648438 4,4 0 0 0 9,7 4,4 0 0 0 5,11 4,4 0 0 0 5.8261719,13.429688 3.5,3.5 0 0 0 4,16.5 3.5,3.5 0 0 0 7.5,20 3.5,3.5 0 0 0 8,19.960938 L 8,21 c 0,1.662 1.338,3 3,3 l 10,0 c 1.662,0 3,-1.338 3,-3 l 0,-0.04102 A 3.5,3.5 0 0 0 24.5,21 3.5,3.5 0 0 0 28,17.5 3.5,3.5 0 0 0 26.208984,14.447266 8,8 0 0 0 27,11 8,8 0 0 0 19,3 Z" style="opacity:.2"/>
 <path d="M 19,2 A 8,8 0 0 0 11.601562,6.9648438 4,4 0 0 0 9,6 4,4 0 0 0 5,10 4,4 0 0 0 5.8261719,12.429688 3.5,3.5 0 0 0 4,15.5 3.5,3.5 0 0 0 7.5,19 3.5,3.5 0 0 0 8,18.960938 L 8,20 c 0,1.662 1.338,3 3,3 l 10,0 c 1.662,0 3,-1.338 3,-3 l 0,-0.04102 A 3.5,3.5 0 0 0 24.5,20 3.5,3.5 0 0 0 28,16.5 3.5,3.5 0 0 0 26.208984,13.447266 8,8 0 0 0 27,10 8,8 0 0 0 19,2 Z" style="fill:#e6c59a"/>
 <path d="m19 15c0 1.656854-1.343146 3-3 3s-3-1.343146-3-3z" style="fill:#a81a1a"/>
 <circle cx="11" cy="13" r="2" style="fill:#3f3f3f"/>
 <circle cx="11.5" cy="12.5" r=".5" style="fill:#ffffff"/>
 <path d="m24 18c-1.108 0-2 0.944471-2 2.117647v9.882353h2.75c0.6925 0 1.25-0.669 1.25-1.5v-8.382353c0-1.173176-0.892-2.117647-2-2.117647z" style="fill:#e54b3f"/>
 <path d="m16 20c-1.108 0-2 0.955714-2 2.142857v7.857143h4v-7.857143c0-1.187143-0.892-2.142857-2-2.142857z" style="fill:#e54b3f"/>
 <path d="m20 19.5c-1.108 0-2 0.9366-2 2.1v8.4h4v-8.4c0-1.1634-0.892-2.1-2-2.1z" style="fill:#ffffff"/>
 <path d="m 8,18 c 1.108,0 2,0.944471 2,2.117647 L 10,30 7.25,30 C 6.5575,30 6,29.331 6,28.5 L 6,20.117647 C 6,18.944471 6.892,18 8,18 Z" style="fill:#e54b3f"/>
 <path d="m12 19.5c1.108 0 2 0.9366 2 2.1v8.4h-4v-8.4c0-1.1634 0.892-2.1 2-2.1z" style="fill:#ffffff"/>
 <circle cx="21" cy="13" r="2" style="fill:#3f3f3f"/>
 <circle cx="21.5" cy="12.5" r=".5" style="fill:#ffffff"/>
 <path d="M 19,2 A 8,8 0 0 0 11.601562,6.9648438 4,4 0 0 0 9,6 4,4 0 0 0 5,10 4,4 0 0 0 5.0351562,10.505859 4,4 0 0 1 9,7 4,4 0 0 1 11.601562,7.9648438 8,8 0 0 1 19,3 8,8 0 0 1 26.976562,10.509766 8,8 0 0 0 27,10 8,8 0 0 0 19,2 Z M 5.3945312,12.712891 A 3.5,3.5 0 0 0 4,15.5 3.5,3.5 0 0 0 4.0390625,15.996094 3.5,3.5 0 0 1 5.8261719,13.429688 4,4 0 0 1 5.3945312,12.712891 Z m 21.1406248,0.947265 a 8,8 0 0 1 -0.326172,0.78711 3.5,3.5 0 0 1 1.751954,2.558593 A 3.5,3.5 0 0 0 28,16.5 3.5,3.5 0 0 0 26.535156,13.660156 Z" style="fill:#ffffff;opacity:.2"/>
</svg>

<svg xmlns="http://www.w3.org/2000/svg" width="32" height="32" version="1.1" viewBox="0 0 32 32">
 <path style="opacity:0.2" d="M 8,19 C 6.892,19 6,19.944011 6,21.117188 L 6,29.5 C 6,30.331 6.5575,31 7.25,31 l 2.75,0 4,0 4,0 4,0 2.75,0 C 25.4425,31 26,30.331 26,29.5 l 0,-8.382812 C 26,19.944012 25.108,19 24,19 c -1.108,0 -2,0.944012 -2,2.117188 l 0,1.482421 C 22,21.436209 21.108,20.5 20,20.5 c -1.108,0 -2,0.936209 -2,2.099609 l 0,0.542969 C 18,21.955435 17.108,21 16,21 c -1.108,0 -2,0.955435 -2,2.142578 l 0,-0.542969 C 14,21.436209 13.108,20.5 12,20.5 c -1.108,0 -2,0.936209 -2,2.099609 l 0,-1.482421 C 10,19.944012 9.108,19 8,19 Z"/>
 <path style="opacity:0.2" d="M 19,3 A 8,8 0 0 0 11.601562,7.9648438 4,4 0 0 0 9,7 4,4 0 0 0 5,11 4,4 0 0 0 5.8261719,13.429688 3.5,3.5 0 0 0 4,16.5 3.5,3.5 0 0 0 7.5,20 3.5,3.5 0 0 0 8,19.960938 L 8,21 c 0,1.662 1.338,3 3,3 l 10,0 c 1.662,0 3,-1.338 3,-3 l 0,-0.04102 A 3.5,3.5 0 0 0 24.5,21 3.5,3.5 0 0 0 28,17.5 3.5,3.5 0 0 0 26.208984,14.447266 8,8 0 0 0 27,11 8,8 0 0 0 19,3 Z"/>
 <path style="fill:#e6c59a" d="M 19,2 A 8,8 0 0 0 11.601562,6.9648438 4,4 0 0 0 9,6 4,4 0 0 0 5,10 4,4 0 0 0 5.8261719,12.429688 3.5,3.5 0 0 0 4,15.5 3.5,3.5 0 0 0 7.5,19 3.5,3.5 0 0 0 8,18.960938 L 8,20 c 0,1.662 1.338,3 3,3 l 10,0 c 1.662,0 3,-1.338 3,-3 l 0,-0.04102 A 3.5,3.5 0 0 0 24.5,20 3.5,3.5 0 0 0 28,16.5 3.5,3.5 0 0 0 26.208984,13.447266 8,8 0 0 0 27,10 8,8 0 0 0 19,2 Z"/>
 <path style="fill:#a81a1a" d="m 19,15 c 0,1.656854 -1.343146,3 -3,3 -1.656854,0 -3,-1.343146 -3,-3 z"/>
 <circle style="fill:#3f3f3f" cx="11" cy="13" r="2"/>
 <circle style="fill:#ffffff" cx="11.5" cy="12.5" r=".5"/>
 <path style="fill:#e54b3f" d="m 24,18 c -1.108,0 -2,0.944471 -2,2.117647 L 22,30 24.75,30 C 25.4425,30 26,29.331 26,28.5 l 0,-8.382353 C 26,18.944471 25.108,18 24,18 Z"/>
 <path style="fill:#e54b3f" d="m 16,20 c -1.108,0 -2,0.955714 -2,2.142857 L 14,30 l 4,0 0,-7.857143 C 18,20.955714 17.108,20 16,20 Z"/>
 <path style="fill:#ffffff" d="m 20,19.5 c -1.108,0 -2,0.9366 -2,2.1 l 0,8.4 4,0 0,-8.4 c 0,-1.1634 -0.892,-2.1 -2,-2.1 z"/>
 <path style="fill:#e54b3f" d="m 8,18 c 1.108,0 2,0.944471 2,2.117647 L 10,30 7.25,30 C 6.5575,30 6,29.331 6,28.5 L 6,20.117647 C 6,18.944471 6.892,18 8,18 Z"/>
 <path style="fill:#ffffff" d="m 12,19.5 c 1.108,0 2,0.9366 2,2.1 l 0,8.4 -4,0 0,-8.4 c 0,-1.1634 0.892,-2.1 2,-2.1 z"/>
 <circle style="fill:#3f3f3f" cx="21" cy="13" r="2"/>
 <circle style="fill:#ffffff" cx="21.5" cy="12.5" r=".5"/>
 <path style="opacity:0.2;fill:#ffffff" d="M 19,2 A 8,8 0 0 0 11.601562,6.9648438 4,4 0 0 0 9,6 4,4 0 0 0 5,10 4,4 0 0 0 5.0351562,10.505859 4,4 0 0 1 9,7 4,4 0 0 1 11.601562,7.9648438 8,8 0 0 1 19,3 8,8 0 0 1 26.976562,10.509766 8,8 0 0 0 27,10 8,8 0 0 0 19,2 Z M 5.3945312,12.712891 A 3.5,3.5 0 0 0 4,15.5 3.5,3.5 0 0 0 4.0390625,15.996094 3.5,3.5 0 0 1 5.8261719,13.429688 4,4 0 0 1 5.3945312,12.712891 Z m 21.1406248,0.947265 a 8,8 0 0 1 -0.326172,0.78711 3.5,3.5 0 0 1 1.751954,2.558593 A 3.5,3.5 0 0 0 28,16.5 3.5,3.5 0 0 0 26.535156,13.660156 Z"/>
</svg>
